public/favicon.svg

<svg width="141" height="141" viewBox="0 0 141 141" fill="none" xmlns="http://www.w3.org/2000/svg">
<rect width="141" height="141" rx="27" fill="white"/>
<path d="M98.0107 54.5L98.4473 55.2324L107.125 69.7998L115.843 55.2295L116.279 54.5H130.832V87.6855H117.648V78.3311L112.491 86.9561L112.055 87.6855H101.906L101.475 86.9307L96.7275 78.6299V87.6855H83.5V54.5H98.0107Z" fill="#D5FF00" stroke="black" stroke-width="3"/>
<path d="M63.7178 53.5C70.2204 53.5 74.7849 54.3021 78.126 55.918C81.5362 57.5674 83.5343 59.9966 85.0254 62.918L85.8174 64.4707L84.1641 65.0225L80.2979 66.3145H86.374V86.9873H75.21V85.1455C74.4498 85.539 73.6011 85.8809 72.6152 86.1611C70.4794 86.7682 67.7565 87.0732 63.9805 87.0732C55.8652 87.0732 50.211 85.5039 46.5703 82.5508C42.8622 79.5429 41.5001 75.316 41.5 70.6523C41.5 64.7592 44.1451 60.39 48.3184 57.5537C52.4259 54.7621 57.9323 53.5 63.7178 53.5ZM63.6299 65.0996C59.4357 65.0996 57.2758 65.8474 56.1611 66.7744C55.131 67.6313 54.7275 68.8744 54.7275 70.7383C54.7276 72.4352 55.0783 73.5241 56.0498 74.291C56.545 74.6818 57.2653 75.0398 58.3115 75.3164V66.3145H71.2334C69.8384 65.6417 67.5207 65.0996 63.6299 65.0996Z" fill="#D5FF00" stroke="black" stroke-width="3"/>
<path d="M32.7178 53.5C40.7825 53.5 46.4513 54.8759 50.1318 57.5293C53.915 60.2566 55.374 64.1639 55.374 68.5879V70.0879H42.0801L41.9043 68.8369C41.9034 68.8327 41.9002 68.8143 41.8916 68.7842C41.8735 68.7208 41.8348 68.6055 41.7627 68.4541C41.6201 68.1549 41.3383 67.7022 40.791 67.2256C39.7101 66.2843 37.4123 65.0996 32.6299 65.0996C28.468 65.0996 26.3982 65.9214 25.3652 66.8252C24.3938 67.6753 24.0782 68.8336 24.0781 70.3076C24.0781 71.8789 24.5155 73.0789 25.583 73.9404C26.7211 74.8589 28.8265 75.6016 32.6299 75.6016C37.8031 75.6016 40.1043 74.5736 41.0859 73.8105C41.5663 73.4371 41.7568 73.1094 41.832 72.9395C41.8648 72.8653 41.8785 72.8114 41.8848 72.7852L41.915 71.3877H55.374V72.8877C55.374 76.6846 54.1949 80.372 50.5703 83.0352C47.0497 85.6219 41.4391 87.0732 32.9805 87.0732C24.9408 87.0732 19.2722 85.8849 15.6104 83.1143C11.831 80.2547 10.5001 75.9671 10.5 70.6523C10.5 64.5248 12.4544 60.0845 16.458 57.2627C20.3451 54.5231 25.9113 53.5 32.7178 53.5Z" fill="#D5FF00" stroke="black" stroke-width="3"/>
</svg>

<?xml version="1.0" encoding="UTF-8"?>
<svg id="Capa_2" data-name="Capa 2" xmlns="http://www.w3.org/2000/svg" viewBox="0 0 141 141">
  <defs>
    <style>
      .cls-1 {
        fill: #d5ff00;
        stroke: #000;
        stroke-width: 3px;
      }

      .cls-2 {
        fill: #fff;
      }
    </style>
  </defs>
  <g id="Capa_1-2" data-name="Capa 1">
    <rect class="cls-2" width="141" height="141" rx="27" ry="27"/>
    <path class="cls-1" d="M98.01,54.5l.44.73,8.68,14.57,8.72-14.57.44-.73h14.55v33.19h-13.18v-9.35l-5.16,8.62-.44.73h-10.15l-.43-.75-4.75-8.3v9.06h-13.23v-33.19h14.51Z"/>
    <path class="cls-1" d="M63.72,53.5c6.5,0,11.07.8,14.41,2.42,3.41,1.65,5.41,4.08,6.9,7l.79,1.55-1.65.55-3.87,1.29h6.08v20.67h-11.16v-1.84c-.76.39-1.61.74-2.59,1.02-2.14.61-4.86.91-8.63.91-8.12,0-13.77-1.57-17.41-4.52-3.71-3.01-5.07-7.23-5.07-11.9,0-5.89,2.65-10.26,6.82-13.1,4.11-2.79,9.61-4.05,15.4-4.05ZM63.63,65.1c-4.19,0-6.35.75-7.47,1.67-1.03.86-1.43,2.1-1.43,3.96,0,1.7.35,2.79,1.32,3.55.5.39,1.22.75,2.26,1.03v-9h12.92c-1.39-.67-3.71-1.21-7.6-1.21Z"/>
    <path class="cls-1" d="M32.72,53.5c8.06,0,13.73,1.38,17.41,4.03,3.78,2.73,5.24,6.63,5.24,11.06v1.5h-13.29l-.18-1.25s0-.02-.01-.05c-.02-.06-.06-.18-.13-.33-.14-.3-.42-.75-.97-1.23-1.08-.94-3.38-2.13-8.16-2.13-4.16,0-6.23.82-7.26,1.73-.97.85-1.29,2.01-1.29,3.48,0,1.57.44,2.77,1.5,3.63,1.14.92,3.24,1.66,7.05,1.66,5.17,0,7.47-1.03,8.46-1.79.48-.37.67-.7.75-.87.03-.07.05-.13.05-.15l.03-1.4h13.46v1.5c0,3.8-1.18,7.48-4.8,10.15-3.52,2.59-9.13,4.04-17.59,4.04s-13.71-1.19-17.37-3.96c-3.78-2.86-5.11-7.15-5.11-12.46,0-6.13,1.95-10.57,5.96-13.39,3.89-2.74,9.45-3.76,16.26-3.76Z"/>
    <rect x="69.01" y="64.89" width="11.29" height="2.89"/>
    <path d="M77.03,72.42h-17.36c.04,1.61.07,3.22.11,4.83,2.23.28,4.94.43,8.01.24,3.67-.23,6.8-.9,9.24-1.61v-3.46Z"/>
  </g>
</svg>
